icons/pins/dark/cafe.svg

<svg width="64" height="78" viewBox="0 0 64 78" fill="none" xmlns="http://www.w3.org/2000/svg">
<mask id="path-1-outside-1_764_12020" maskUnits="userSpaceOnUse" x="0" y="0" width="64" height="78" fill="black">
<rect fill="white" width="64" height="78"/>
<path fill-rule="evenodd" clip-rule="evenodd" d="M38 61.3999C51.6934 58.6203 62 46.5137 62 32C62 15.4315 48.5685 2 32 2C15.4315 2 2 15.4315 2 32C2 46.5137 12.3066 58.6203 26 61.3999C29.4824 62.1068 29.933 64.2164 30.2846 65.8624C30.5388 67.0524 30.7412 68 32 68C33.2588 68 33.4612 67.0524 33.7154 65.8624C34.067 64.2164 34.5176 62.1068 38 61.3999ZM32 76C33.6569 76 35 74.6569 35 73C35 71.3431 33.6569 70 32 70C30.3431 70 29 71.3431 29 73C29 74.6569 30.3431 76 32 76Z"/>
</mask>
<path fill-rule="evenodd" clip-rule="evenodd" d="M38 61.3999C51.6934 58.6203 62 46.5137 62 32C62 15.4315 48.5685 2 32 2C15.4315 2 2 15.4315 2 32C2 46.5137 12.3066 58.6203 26 61.3999C29.4824 62.1068 29.933 64.2164 30.2846 65.8624C30.5388 67.0524 30.7412 68 32 68C33.2588 68 33.4612 67.0524 33.7154 65.8624C34.067 64.2164 34.5176 62.1068 38 61.3999ZM32 76C33.6569 76 35 74.6569 35 73C35 71.3431 33.6569 70 32 70C30.3431 70 29 71.3431 29 73C29 74.6569 30.3431 76 32 76Z" fill="url(#paint0_linear_764_12020)"/>
<path fill-rule="evenodd" clip-rule="evenodd" d="M38 61.3999C51.6934 58.6203 62 46.5137 62 32C62 15.4315 48.5685 2 32 2C15.4315 2 2 15.4315 2 32C2 46.5137 12.3066 58.6203 26 61.3999C29.4824 62.1068 29.933 64.2164 30.2846 65.8624C30.5388 67.0524 30.7412 68 32 68C33.2588 68 33.4612 67.0524 33.7154 65.8624C34.067 64.2164 34.5176 62.1068 38 61.3999ZM32 76C33.6569 76 35 74.6569 35 73C35 71.3431 33.6569 70 32 70C30.3431 70 29 71.3431 29 73C29 74.6569 30.3431 76 32 76Z" fill="#EB9617"/>
<path d="M38 61.3999L37.6021 59.4399L38 61.3999ZM26 61.3999L26.3979 59.4399H26.3979L26 61.3999ZM30.2846 65.8624L32.2405 65.4446H32.2405L30.2846 65.8624ZM33.7154 65.8624L35.6713 66.2802L33.7154 65.8624ZM60 32C60 45.5438 50.3818 56.8457 37.6021 59.4399L38.3979 63.3599C53.005 60.3948 64 47.4837 64 32H60ZM32 4C47.464 4 60 16.536 60 32H64C64 14.3269 49.6731 0 32 0V4ZM4 32C4 16.536 16.536 4 32 4V0C14.3269 0 0 14.3269 0 32H4ZM26.3979 59.4399C13.6182 56.8457 4 45.5438 4 32H0C0 47.4837 10.995 60.3948 25.6021 63.3599L26.3979 59.4399ZM32.2405 65.4446C32.0747 64.6686 31.8114 63.3207 30.939 62.1099C30.001 60.808 28.5378 59.8742 26.3979 59.4399L25.6021 63.3599C26.9446 63.6324 27.4479 64.107 27.6937 64.4481C28.0051 64.8804 28.1429 65.4103 28.3287 66.2802L32.2405 65.4446ZM32 66C31.9377 66 32.0305 65.9895 32.1832 66.0715C32.3444 66.1581 32.434 66.2731 32.4641 66.3216C32.4806 66.348 32.4535 66.3129 32.4035 66.1407C32.3531 65.967 32.3076 65.759 32.2405 65.4446L28.3287 66.2802C28.4308 66.7582 28.6031 67.687 29.067 68.4333C29.3368 68.8674 29.7289 69.2937 30.2901 69.5952C30.8428 69.8921 31.4329 70 32 70V66ZM31.7595 65.4446C31.6924 65.759 31.6469 65.967 31.5965 66.1407C31.5465 66.3129 31.5194 66.348 31.5359 66.3216C31.566 66.2731 31.6556 66.1581 31.8168 66.0715C31.9695 65.9895 32.0623 66 32 66V70C32.5671 70 33.1572 69.8921 33.7099 69.5952C34.271 69.2937 34.6632 68.8674 34.933 68.4333C35.3969 67.687 35.5692 66.7582 35.6713 66.2802L31.7595 65.4446ZM37.6021 59.4399C35.4622 59.8742 33.999 60.808 33.061 62.1099C32.1886 63.3207 31.9253 64.6686 31.7595 65.4446L35.6713 66.2802C35.8571 65.4103 35.9949 64.8804 36.3063 64.4481C36.5521 64.107 37.0554 63.6324 38.3979 63.3599L37.6021 59.4399ZM33 73C33 73.5523 32.5523 74 32 74V78C34.7614 78 37 75.7614 37 73H33ZM32 72C32.5523 72 33 72.4477 33 73H37C37 70.2386 34.7614 68 32 68V72ZM31 73C31 72.4477 31.4477 72 32 72V68C29.2386 68 27 70.2386 27 73H31ZM32 74C31.4477 74 31 73.5523 31 73H27C27 75.7614 29.2386 78 32 78V74Z" fill="#424242" mask="url(#path-1-outside-1_764_12020)"/>
<circle cx="32" cy="32" r="27" fill="#424242"/>
<path fill-rule="evenodd" clip-rule="evenodd" d="M20 20H40C44.4183 20 48 23.5817 48 28C48 31.8003 45.3501 34.9817 41.7973 35.7973C41.4171 37.4534 40.5229 38.9132 39.2916 40H46V42C46 45.3137 43.3137 48 40 48H22C18.6863 48 16 45.3137 16 42V40H22.7084C21.0475 38.5341 20 36.3894 20 34V20Z" fill="#424242"/>
<path fill-rule="evenodd" clip-rule="evenodd" d="M22 22V34C22 37.3137 24.6863 40 28 40H34C37.3137 40 40 37.3137 40 34C43.3137 34 46 31.3137 46 28C46 24.6863 43.3137 22 40 22H22ZM40 25V31C41.6569 31 43 29.6569 43 28C43 26.3431 41.6569 25 40 25Z" fill="#EB9617"/>
<path d="M44 42H18C18 44.2091 19.7909 46 22 46H40C42.2091 46 44 44.2091 44 42Z" fill="#EB9617"/>
<defs>
<linearGradient id="paint0_linear_764_12020" x1="5.74911" y1="75.8999" x2="73.2902" y2="22.0909" gradientUnits="userSpaceOnUse">
<stop stop-color="#E700BF"/>
<stop offset="1" stop-color="#57009B"/>
</linearGradient>
</defs>
</svg>

<svg xmlns="http://www.w3.org/2000/svg" width="64" height="78" fill="none"><mask id="b" width="64" height="78" x="0" y="0" fill="#000" maskUnits="userSpaceOnUse"><path fill="#fff" d="M0 0h64v78H0z"/><path fill-rule="evenodd" d="M38 61.4C51.693 58.62 62 46.514 62 32 62 15.432 48.569 2 32 2 15.432 2 2 15.432 2 32c0 14.514 10.307 26.62 24 29.4 3.482.707 3.933 2.816 4.285 4.462C30.539 67.052 30.74 68 32 68s1.461-.948 1.715-2.138c.352-1.646.803-3.755 4.285-4.462M32 76a3 3 0 1 0 0-6 3 3 0 0 0 0 6" clip-rule="evenodd"/></mask><path fill="url(#a)" fill-rule="evenodd" d="M38 61.4C51.693 58.62 62 46.514 62 32 62 15.432 48.569 2 32 2 15.432 2 2 15.432 2 32c0 14.514 10.307 26.62 24 29.4 3.482.707 3.933 2.816 4.285 4.462C30.539 67.052 30.74 68 32 68s1.461-.948 1.715-2.138c.352-1.646.803-3.755 4.285-4.462M32 76a3 3 0 1 0 0-6 3 3 0 0 0 0 6" clip-rule="evenodd"/><path fill="#EB9617" fill-rule="evenodd" d="M38 61.4C51.693 58.62 62 46.514 62 32 62 15.432 48.569 2 32 2 15.432 2 2 15.432 2 32c0 14.514 10.307 26.62 24 29.4 3.482.707 3.933 2.816 4.285 4.462C30.539 67.052 30.74 68 32 68s1.461-.948 1.715-2.138c.352-1.646.803-3.755 4.285-4.462M32 76a3 3 0 1 0 0-6 3 3 0 0 0 0 6" clip-rule="evenodd"/><path fill="#424242" d="m38 61.4-.398-1.96zm-12 0 .398-1.96zm4.285 4.462 1.955-.417zm3.43 0 1.956.418zM60 32c0 13.544-9.618 24.846-22.398 27.44l.796 3.92C53.005 60.395 64 47.484 64 32zM32 4c15.464 0 28 12.536 28 28h4C64 14.327 49.673 0 32 0zM4 32C4 16.536 16.536 4 32 4V0C14.327 0 0 14.327 0 32zm22.398 27.44C13.618 56.846 4 45.544 4 32H0c0 15.484 10.995 28.395 25.602 31.36zm5.842 6.005c-.165-.776-.429-2.124-1.301-3.335-.938-1.302-2.401-2.236-4.541-2.67l-.796 3.92c1.343.272 1.846.747 2.092 1.088.311.432.449.962.635 1.832zM32 66c-.062 0 .03-.01.183.072.161.086.251.201.281.25.017.026-.01-.01-.06-.181-.05-.174-.096-.382-.164-.696l-3.911.835c.102.478.274 1.407.738 2.153.27.434.662.86 1.223 1.162.553.297 1.143.405 1.71.405zm-.24-.555c-.068.314-.113.522-.164.696-.05.172-.077.207-.06.18a.8.8 0 0 1 .28-.25c.154-.081.246-.071.184-.071v4c.567 0 1.157-.108 1.71-.405a3.24 3.24 0 0 0 1.223-1.162c.464-.746.636-1.675.738-2.153zm5.842-6.005c-2.14.434-3.603 1.368-4.541 2.67-.872 1.21-1.136 2.559-1.302 3.335l3.912.835c.186-.87.324-1.4.635-1.832.246-.341.75-.816 2.092-1.088zM33 73a1 1 0 0 1-1 1v4a5 5 0 0 0 5-5zm-1-1a1 1 0 0 1 1 1h4a5 5 0 0 0-5-5zm-1 1a1 1 0 0 1 1-1v-4a5 5 0 0 0-5 5zm1 1a1 1 0 0 1-1-1h-4a5 5 0 0 0 5 5z" mask="url(#b)"/><circle cx="32" cy="32" r="27" fill="#424242"/><path fill="#424242" fill-rule="evenodd" d="M20 20h20a8 8 0 0 1 1.797 15.797A8 8 0 0 1 39.292 40H46v2a6 6 0 0 1-6 6H22a6 6 0 0 1-6-6v-2h6.708A7.98 7.98 0 0 1 20 34z" clip-rule="evenodd"/><path fill="#EB9617" fill-rule="evenodd" d="M22 22v12a6 6 0 0 0 6 6h6a6 6 0 0 0 6-6 6 6 0 0 0 0-12zm18 3v6a3 3 0 1 0 0-6" clip-rule="evenodd"/><path fill="#EB9617" d="M44 42H18a4 4 0 0 0 4 4h18a4 4 0 0 0 4-4"/><defs><linearGradient id="a" x1="5.749" x2="73.29" y1="75.9" y2="22.091" gradientUnits="userSpaceOnUse"><stop stop-color="#E700BF"/><stop offset="1" stop-color="#57009B"/></linearGradient></defs></svg>
